X:53
T:Cuckoo Hornpipe*, The
T:Dublin Hornpipe 
B:CRE2.307 (gan ainm)
F:file ID: cre.2/053cuckoo
S:Seamus Ennis 
L:1/8
M:C
R:hornpipe % A-B-A
Q:150
K:G
A|:(3BAG Bd c2cA|d^cde dBGF|E2cB AGFG|
AGFE D2dc|BGDG cAFA|d^cde dBGF|EdcB AGFG|1 AGGF G3A:|\
[2 AGGF G2||
|:a|bgg2 dgBg|bgg2 dgab|c'aa2 eac'a|c'aa2 eac'a|
bgg2 dgBg|bgg2 dgBg|(3aba ga fgef|1 decd Bd:|\
[2 dfef gedc||

%%%

